X:1
T:Plus chault que feu
T:Clemens non Papa (c. 1510 - 1555)
T:Plus chault que feu
T:(C) Wim Looyestijn 2019. May be freely copied for non-commercial use.
T:(C) Wim Looyestijn 2019. May be freely copied for non-commercial use.
T:(C) Wim Looyestijn 2019. May be freely copied for non-commercial use.
T:(C) Wim Looyestijn 2019. May be freely copied for non-commercial use.
T:(C) Wim Looyestijn 2019. May be freely copied for non-commercial use.
T:(C) Wim Looyestijn 2019. May be freely copied for non-commercial use.
T:(C) Wim Looyestijn 2019. May be freely copied for non-commercial use.
T:(C) Wim Looyestijn 2019. May be freely copied for non-commercial use.
C:Clemens non Papa
C:(c. 1510 - 1555)
Z:(C) Wim Looyestijn 2019. May be freely copied for non-commercial use.
%%score [ 1 2 3 4 ]
L:1/8
Q:1/4=120
M:2/2
K:C
V:1 treble nm="Superius"
V:2 alto2 nm="Contra tenor"
V:3 alto nm="Tenor"
V:4 tenor nm="Bassus"
V:1
 x8 | z8 | x8 |[K:A] z8 | F8 | F2 G2 A2 B2 | c4 d4 | A8- | A4 A4 | B6 B2 | B4 B4 | A4 A4 | B6 A2 | %13
w: ||||Plus|chault _ _ _|_ que|feu|_ je|lan- guis|par tes|yeulx, plus|chault _|
 B2 c2 d4- | d4 c2 B2 | c4 d4- | d2 c2 B2 A2 | G2 E2 e2 d2 | c2 B2 B4- | B4 ^A4 | B8 | z8 | z8 | %23
w: _ _ _||que feu|_ _ _ _|* je lan- *|* * guis,|_ _||||
 z4 d4 | d4 c4 | d4 c4 | B4 A4 | A4 G4 | A8 | z4 d4 | d4 d4 | c2 B2 A2 G2 | F4 B4 | d4 c4 | B6 AG | %35
w: et|si- ne|puis mes|re- gretz|mieulx _|_|bou-|ter a|fin, _ _ _|_ bou-|ter a|fin _ _|
 A8 | z4 A4 | d4 c4 | B4 A4 | G8 | A8 | z4 A4- | A4 G2 F2 | G4 G4 | F8- | F8- | F8- | F8 | z8 | %49
w: _|car|ton a-|mour me|li-|vre,|feu|_ _ _|si tres|doulx|_||||
 z8 | z4 F4 | A4 B4 | c4 d4 | e8 | d6 cB | A2 B2 c4- | c4 B4 | c4 c4 | c4 B4 | A4 d4- | d4 c4- | %61
w: |qu'en|mou- rant|me _|faict|vi- * *|* * vre,|_ qu'en|mou- rant|me _|_ faict|_ vi-|
 c4 B4- | B4 ^A4 | B4 d4 | c4 B4 | A4 B4- | B4 A4- | A4 G2 F2 | G4 G4 | F8- | F8- | F8- | F8 | z8 | %74
w: ||vre, feu|si tres|doulx, feu|_ si|_ _ _|* tres|doulx,|_||||
 z8 | z4 F4 | A4 B4 | c4 d4 | e8 | d6 cB | A2 B2 c4- | c4 B4 | c4 c4 | c4 B4 | A4 d4- | d4 c4- | %86
w: |qu'en|mou- rant|me faict|vi-|vre, _ _|_ _ _|* qu'en|mou- rant|me _|faict vi-||
 c4 B4- | B4 ^A4 | B16 |] %89
w: ||vre.|
V:2
 x8 | z8 | x8 |[K:A] B,8 | D4 D4 | C4 F4 | E4 D4 | F6 ED | E4 F4 | B,6 C2 | D4 E4 | F8 | z4 B,4 | %13
w: |||Plus|chault que|feu, plus|chault que|feu _ _|_ _||||je|
 F6 F2 | F4 E4 | A4 A,4 | D6 C2 | B,4 A,2 B,2 | C2 D2 E4 | F8 | D8 | F8 | F4 F4 | E4 D4 | =G4 E4 | %25
w: lan- guis|par tes|yeulx, je|lan- guis|par _ _|_ _ tes|yeulx,|et|si-|ne puis|mes _|re- *|
 F4 F4 | B,4 C4 | D8 | E8 | F8 | z4 A4 | A4 A4- | A2 G2 F2 E2 | D2 E2 F4- | F4 ^E4 | F4 F4 | %36
w: gretz en|mieulx _|bou-||ter|a|fin car|_ _ _ _|* * ton|_ a-|mour, ton|
 F6 ^E2 | F4 A4 | G4 F4- | F4 ^E4 | F8 | z4 A,4 | B,4 B,4 | E8- | E4 D4 | C4 C4 | D6 E2 | %47
w: a- *|mour me|_ li-||vre,|feu|si tres|doulx,|_ feu|si tres|doulx, _|
 F2 G2 A4- | A4 G2 F2 | E4 A,4 | B,4 A,4 | F8 | z8 | z4 C4 | D6 E2 | F4 G4 | A4 G2 F2 | E4 F4 | %58
w: _ _ _||* feu|si tres|doulx,||qu'en|mou- *|rant me|faict _ _|_ vi-|
 C4 E4 | F4 G4 | A4 A,4 | B,2 C2 D2 E2 | F8 | D8 | G8 | F8- | F4 C4 | E8 | z4 E4- | E4 D4 | C4 C4 | %71
w: vre, qu'en|mou- rant|me faict|vi- * * *|vre,|feu|si|tres|_ _|doulx,|qu'en|_ mou-|rant me|
 D6 E2 | F2 G2 A4- | A4 G2 F2 | E4 A,4 | B,4 A,4 | F8 | z8 | z4 C4 | D6 E2 | F4 G4 | A4 G2 F2 | %82
w: faict _|_ _ _|||vi- *|vre,||qu'en|mou- *|rant me|faict _ _|
 E4 F4 | C4 E4 | F4 G4 | A4 A,4 | B,2 C2 D2 E2 | F8 | F16 |] %89
w: _ vi-|vre, qu'en|mou- rant|me faict|_ _ _ _|vi-|vre.|
V:3
 x8 | z8 | x8 |[K:A] F,8 | B,4 B,4 | A,8 | z4 F,4 | F,2 G,2 A,2 B,2 | C4 D4- | D2 C2 B,2 A,2 | %10
w: |||Plus|chault que|feu,|plus|chault _ _ _|_ _||
 B,8 | C8 | D8- | D8 | z4 C4 | F6 F2 | F4 F4 | E2 D2 C2 B,2 | A,4 B,4 | C8 | B,4 D4 | D4 C4 | %22
w: |que|feu|_|je|lan- guis|par tes|_ _ _ _||yeulx,|_ et|si- ne|
 D4 C4 | B,4 B,4 | E4 E4 | D4 A,4 | E4 F4- | F2 E2 D4- | D2 CB, C4 | D4 F4 | F4 F4 | E8 | z4 B,4 | %33
w: puis, et|si- ne|puis mes|_ re-|gretz mieulx|_ _ _||* bou-|ter a|fin,|car|
 B,4 C4 | D4 C2 B,2 | C4 C4 | D6 C2 | A,4 A,4 | E4 F4 | C8- | C4 A,4 | C4 D4 | E6 D2 | C4 B,4 | %44
w: ton a-|mour, _ _|_ a-|mour _|_ me|li- *|vre,|_ feu|si tres|doulx _|_ _|
 A,4 B,4- | B,4 ^A,4 | B,8 | z4 F,4 | A,4 B,4 | C4 D4 | E2 D2 C2 B,2 | A,4 G,2 F,2 | G,2 A,2 B,4- | %53
w: |||qu'en|mou- rant|me faict|vi- * * *|||
 B,4 ^A,4 | B,4 F4- | F4 E4 | D8 | C4 F,4 | A,4 B,4 | C4 D4 | E4 F4 | D4 C2 B,2 | C8 | B,8 | E8- | %65
w: |vre, feu|_ si|tres|doulx, feu|si tres|doulx, qu'en|mou- *|rant _ _|me|faict|vi-|
 E4 D4 | C4 A,4 | z4 C4- | C4 B,4 | A,4 B,4- | B,4 A,4 | B,8 | z4 F,4 | A,4 B,4 | C4 D4 | %75
w: |* vre,|feu|_ si|tres doulx,|_ _||qu'en|mou- rant|me faict|
 E2 D2 C2 B,2 | A,4 G,2 F,2 | G,2 F,2 B,4- | B,4 A,4 | B,4 F4- | F4 E4 | D8 | C4 F,4 | A,4 B,4 | %84
w: vi- * * *||||vre, feu|_ si|tres|doulx, qu'en|mou- rant|
 C4 D4 | E4 F4 | D4 C2 B,2 | C8 | B,16 |] %89
w: me _|faict vi-|||vre.|
V:4
"^Source: Second Livre des Chansons a Quatre, Imprimé à Lovain par Pierre Phalese, D.M.LIX.\nOriginal is badly damaged in Contratenor bars 37-38, 57 and 79; supplied notes are editorial.\nSuggested musica ficta are placed above the stave, in-line accidentals are original." x8 | %1
w: |
 z8 | x8 |[K:A] B,,8 | B,,2 C,2 D,2 E,2 | F,2 E,2 F,2 G,2 | A,4 D,4 | D,8 | z4 D,4 | =G,8- | %10
w: ||Plus|chault _ _ _|_ _ _ _|* que|feu,|plus|chault|
 G,4 =G,4 | F,4 F,4 | B,6 B,2 | B,4 B,4 | A,6 G,2 | F,2 E,2 D,4- | D,4 D,4 | E,4 A,4- | A,4 G,4 | %19
w: _ que|feu je|lan- guis|par tes|yeulx, _|_ _ _|* je|lan- guis|_ par|
 F,8 | B,,4 B,4 | B,4 A,4 | B,4 F,4 | =G,6 F,2 | =G,4 A,4 | D,4 F,4 | =G,4 F,4 | B,4 B,4 | A,8 | %29
w: tes|yeulx, et|si- ne|puis mes|grans _|_ _|* re-|gretz _|_ mieulx|_|
 z4 D,4 | D,4 D,4 | A,4 A,4 | D6 C2 | B,4 A,4 | G,8 | F,8- | F,8- | F,8 | z8 | z8 | F,8- | F,8 | %42
w: bou-|ter a|fin car|ton a-|mour me|li-|vre,|_||||feu|_|
 E,8 | E,8 | F,8- | F,8 | z4 C,4 | D,6 E,2 | F,4 G,4 | A,4 G,2 F,2 | E,4 F,4- | F,2 E,2 D,4 | %52
w: si|tres|doulx|_|qu'en|mou- rant|me faict|vi- * *|||
 C,4 B,,4 | C,8 | B,,4 B,,4 | D,4 E,4 | F,4 G,4 | A,8- | A,4 G,4 | F,4 B,4 | A,4 F,4 | G,8 | F,8 | %63
w: ||vre, qu'en|mou- rant|me faict|vi-||||||
 B,,8 | z8 | F,8- | F,8 | E,8 | E,8 | F,8- | F,8 | z4 B,,4 | D,6 E,2 | F,4 G,4 | A,4 G,2 F,2 | %75
w: vre,||feu|_|si|tres|doulx,|_|qu'en|mou- rant|me faict|vi- * *|
 E,4 F,4- | F,2 E,2 D,4 | C,4 B,,4 | C,8 | B,,4 B,,4 | D,4 E,4 | F,4 G,4 | A,8- | A,4 G,4 | %84
w: ||||vre, qu'en|mou- rant|me faict|vi-||
 F,4 B,4 | A,4 F,4 | G,8 | F,8 | B,,16 |] %89
w: ||||vre.|

